Numix/16/status/indicator-keyboard-Az.svg

<?xml version="1.0" encoding="UTF-8" standalone="no"?>
<svg
   xmlns:dc="http://purl.org/dc/elements/1.1/"
   xmlns:cc="http://creativecommons.org/ns#"
   xmlns:rdf="http://www.w3.org/1999/02/22-rdf-syntax-ns#"
   xmlns:svg="http://www.w3.org/2000/svg"
   xmlns="http://www.w3.org/2000/svg"
   xmlns:sodipodi="http://sodipodi.sourceforge.net/DTD/sodipodi-0.dtd"
   xmlns:inkscape="http://www.inkscape.org/namespaces/inkscape"
   viewBox="0 0 16 16"
   id="svg2"
   version="1.1"
   inkscape:version="0.91 r13725"
   sodipodi:docname="indicator-keyboard-Az.svg">
  <metadata
     id="metadata13">
    <rdf:RDF>
      <cc:Work
         rdf:about="">
        <dc:format>image/svg+xml</dc:format>
        <dc:type
           rdf:resource="http://purl.org/dc/dcmitype/StillImage" />
      </cc:Work>
    </rdf:RDF>
  </metadata>
  <defs
     id="defs11" />
  <sodipodi:namedview
     pagecolor="#ffffff"
     bordercolor="#666666"
     borderopacity="1"
     objecttolerance="10"
     gridtolerance="10"
     guidetolerance="10"
     inkscape:pageopacity="0"
     inkscape:pageshadow="2"
     inkscape:window-width="640"
     inkscape:window-height="480"
     id="namedview9"
     showgrid="false"
     inkscape:zoom="14.75"
     inkscape:cx="8"
     inkscape:cy="8"
     inkscape:window-x="65"
     inkscape:window-y="24"
     inkscape:window-maximized="0"
     inkscape:current-layer="svg2" />
  <path
     style="fill:#ececec;fill-opacity:1"
     d="M 1.5996094 0 C 0.71320937 2.9605947e-16 0 0.71320937 0 1.5996094 L 0 14.400391 C 2.9605947e-16 15.286791 0.71320937 16 1.5996094 16 L 14.400391 16 C 15.286791 16 16 15.286791 16 14.400391 L 16 1.5996094 C 16 0.71320937 15.286791 0 14.400391 0 L 1.5996094 0 z M 5.7402344 4.8808594 L 6.2792969 4.8808594 C 6.5012969 5.3428594 6.7121562 5.8055781 6.9101562 6.2675781 C 7.1081563 6.7295781 7.3059062 7.2127969 7.5039062 7.7167969 C 7.7079063 8.2147969 7.915 8.7445937 8.125 9.3085938 C 8.335 9.8665939 8.5625938 10.471141 8.8085938 11.119141 L 8.1347656 11.119141 C 8.0207656 10.813141 7.9125469 10.518328 7.8105469 10.236328 C 7.7085469 9.954328 7.6096719 9.6782031 7.5136719 9.4082031 L 4.4804688 9.4082031 C 4.3784687 9.6782031 4.2758281 9.954328 4.1738281 10.236328 C 4.0718281 10.518328 3.967375 10.813141 3.859375 11.119141 L 3.2207031 11.119141 C 3.4607031 10.471141 3.6845313 9.8665939 3.8945312 9.3085938 C 4.1045313 8.7445937 4.3098125 8.2147969 4.5078125 7.7167969 C 4.7118125 7.2127969 4.911375 6.7295781 5.109375 6.2675781 C 5.307375 5.8055781 5.5182344 5.3428594 5.7402344 4.8808594 z M 5.9921875 5.5839844 C 5.7641875 6.0999844 5.5421719 6.6242031 5.3261719 7.1582031 C 5.1161719 7.6922031 4.8959687 8.2687188 4.6679688 8.8867188 L 7.3242188 8.8867188 C 7.0962188 8.2687188 6.8742031 7.6922031 6.6582031 7.1582031 C 6.4422031 6.6242031 6.2201875 6.0999844 5.9921875 5.5839844 z M 9.5136719 6.4648438 L 12.699219 6.4648438 L 12.699219 6.9433594 C 12.561219 7.0993594 12.380203 7.3138438 12.158203 7.5898438 C 11.936203 7.8658437 11.699266 8.1755781 11.447266 8.5175781 C 11.195266 8.8535781 10.947172 9.2080781 10.701172 9.5800781 C 10.455172 9.9460783 10.238734 10.293047 10.052734 10.623047 L 12.779297 10.623047 L 12.779297 11.119141 L 9.3789062 11.119141 L 9.3789062 10.695312 C 9.5349063 10.401312 9.7270781 10.076656 9.9550781 9.7226562 C 10.189078 9.3686563 10.427828 9.0216875 10.673828 8.6796875 C 10.919828 8.3316875 11.160531 8.0070313 11.394531 7.7070312 C 11.628531 7.4010312 11.826281 7.1529375 11.988281 6.9609375 L 9.5136719 6.9609375 L 9.5136719 6.4648438 z "
     id="path4" />
</svg>

<svg xmlns="http://www.w3.org/2000/svg" viewBox="0 0 16 16">
 <path d="m 1.6 0 c -0.886 0 -1.6 0.713 -1.6 1.6 l 0 12.801 c 0 0.886 0.713 1.6 1.6 1.6 l 12.801 0 c 0.886 0 1.6 -0.713 1.6 -1.6 l 0 -12.801 c 0 -0.886 -0.713 -1.6 -1.6 -1.6 l -12.801 0 z m 4.141 4.881 l 0.539 0 c 0.222 0.462 0.433 0.925 0.631 1.387 c 0.198 0.462 0.396 0.945 0.594 1.449 c 0.204 0.498 0.411 1.028 0.621 1.592 c 0.21 0.558 0.438 1.163 0.684 1.811 l -0.674 0 c -0.114 -0.306 -0.222 -0.601 -0.324 -0.883 c -0.102 -0.282 -0.201 -0.558 -0.297 -0.828 l -3.033 0 c -0.102 0.27 -0.205 0.546 -0.307 0.828 c -0.102 0.282 -0.206 0.577 -0.314 0.883 l -0.639 0 c 0.24 -0.648 0.464 -1.253 0.674 -1.811 c 0.21 -0.564 0.415 -1.094 0.613 -1.592 c 0.204 -0.504 0.404 -0.987 0.602 -1.449 c 0.198 -0.462 0.409 -0.925 0.631 -1.387 z m 0.252 0.703 c -0.228 0.516 -0.45 1.04 -0.666 1.574 c -0.21 0.534 -0.43 1.111 -0.658 1.729 l 2.656 0 c -0.228 -0.618 -0.45 -1.195 -0.666 -1.729 c -0.216 -0.534 -0.438 -1.058 -0.666 -1.574 z m 3.521 0.881 l 3.186 0 l 0 0.479 c -0.138 0.156 -0.319 0.37 -0.541 0.646 c -0.222 0.276 -0.459 0.586 -0.711 0.928 c -0.252 0.336 -0.5 0.691 -0.746 1.063 c -0.246 0.366 -0.462 0.713 -0.648 1.043 l 2.727 0 l 0 0.496 l -3.4 0 l 0 -0.424 c 0.156 -0.294 0.348 -0.619 0.576 -0.973 c 0.234 -0.354 0.473 -0.701 0.719 -1.043 c 0.246 -0.348 0.487 -0.673 0.721 -0.973 c 0.234 -0.306 0.432 -0.554 0.594 -0.746 l -2.475 0 l 0 -0.496 z" style="fill:#ececec;fill-opacity:1"/>
</svg>
